outputs/icons/file/page_rotate_round.svg

<svg xmlns="http://www.w3.org/2000/svg" width="1200" height="1200" fill="none"><path fill="#000" d="M655 1100q-78.749-.001-155-23.125-55.922-16.957-102.43-48.375c-18.41-12.435-19.65-38.285-4.31-54.355 13.748-14.405 36.066-15.785 52.806-5.005 26.445 17.03 54.004 29.82 82.684 38.36q58.749 17.499 126.25 17.5 152.499 0 261.25-108.75Q1025 807.499 1025 655T916.25 393.75 655 285h-52.5l77.5 77.5c15.19 15.188 15.19 39.812 0 55s-39.81 15.188-55 0L463.839 256.339c-4.882-4.882-4.882-12.797 0-17.678L625 77.5c15.19-15.188 39.81-15.188 55 0s15.19 39.812 0 55L602.5 210H655q182.499 0 313.75 131.25Q1100 472.501 1100 655q0 91.251-35.625 171.875-35.626 80.626-96.25 141.25t-141.25 96.25Q746.251 1100 655 1100M362.856 889.645c-19.527 19.525-51.185 19.525-70.712 0L85.355 682.855c-19.526-19.525-19.526-51.185 0-70.71l206.789-206.789c19.527-19.527 51.185-19.527 70.712 0l206.789 206.789c19.525 19.525 19.525 51.185 0 70.71zM327.5 822.5l170-170-170-170-170 170z"/></svg>

<svg width="1200" height="1200" viewBox="0 0 1200 1200" fill="none" xmlns="http://www.w3.org/2000/svg"><path d="M655 1100C602.5 1100 550.835 1092.29 500 1076.875C462.719 1065.57 428.575 1049.445 397.57 1028.5C379.16 1016.065 377.92 990.215 393.26 974.145C407.008 959.74 429.326 958.36 446.066 969.14C472.511 986.17 500.07 998.96 528.75 1007.5C567.915 1019.165 610 1025 655 1025C756.665 1025 843.75 988.75 916.25 916.25C988.75 843.75 1025 756.665 1025 655C1025 553.335 988.75 466.25 916.25 393.75C843.75 321.25 756.665 285 655 285H602.5L680 362.5C695.19 377.688 695.19 402.312 680 417.5C664.81 432.688 640.19 432.688 625 417.5L463.839 256.339C458.957 251.457 458.957 243.542 463.839 238.661L625 77.5C640.19 62.312 664.81 62.312 680 77.5C695.19 92.688 695.19 117.312 680 132.5L602.5 210H655C776.665 210 881.25 253.75 968.75 341.25C1056.25 428.75 1100 533.335 1100 655C1100 715.835 1088.125 773.125 1064.375 826.875C1040.625 880.625 1008.54 927.71 968.125 968.125C927.71 1008.54 880.625 1040.625 826.875 1064.375C773.125 1088.125 715.835 1100 655 1100ZM362.856 889.645C343.329 909.17 311.671 909.17 292.144 889.645L85.355 682.855C65.829 663.33 65.829 631.67 85.355 612.145L292.144 405.356C311.671 385.829 343.329 385.829 362.856 405.356L569.645 612.145C589.17 631.67 589.17 663.33 569.645 682.855L362.856 889.645ZM327.5 822.5L497.5 652.5L327.5 482.5L157.5 652.5L327.5 822.5Z" fill="black"/></svg>
